assets/icons/devices/apple/beats.studio.buds.svg

<svg xmlns="http://www.w3.org/2000/svg" xml:space="preserve" style="enable-background:new 0 0 128 128" viewBox="0 0 128 128">
  <circle cx="64" cy="64" r="64" style="fill:#656365"/>
  <path fill="none" d="M25.5 44.3h76.9v35.3H25.5z" style="fill-opacity:0"/>
  <path d="M41.3 66.5c3 1.3 6.5-.2 7.8-3.2l4.4-9.9c1.3-3-.1-6.5-3.2-7.8-3-1.3-6.5.1-7.8 3.2l-4.3 9.9c-1.3 3 .1 6.5 3.1 7.8zm2.2-1.7c-2.1 0-3.7-1.6-3.7-3.7s1.6-3.7 3.7-3.7 3.7 1.6 3.7 3.7c0 2-1.6 3.7-3.7 3.7zm0-1.6c1.3 0 2.2-.9 2.2-2.2 0-1.2-.9-2.2-2.2-2.2-1.2 0-2.1 1-2.1 2.2 0 1.3.9 2.2 2.1 2.2zm18.6-3c-1.1-3.7-3.9-5.5-6.2-7.5-.1.5-.3 1-.5 1.6L51 64.2c-1.8 4-6.5 5.9-10.6 4.2-4-1.8-5.9-6.2-4.4-10.2-2 2.4-2.4 6-.9 10.1 2.7 7.5 9.6 9 16.3 6.3l4.1-1.6c5.6-2.1 8.2-7.3 6.6-12.8zm24.6 6.3c3-1.3 4.5-4.8 3.2-7.8l-4.3-9.9c-1.4-3.1-4.8-4.5-7.8-3.2-3 1.3-4.5 4.9-3.2 7.8l4.4 9.9c1.2 3 4.6 4.5 7.7 3.2zm-2.2-1.7c-2.1 0-3.7-1.6-3.7-3.7s1.6-3.7 3.7-3.7c2 0 3.7 1.6 3.7 3.7 0 2-1.7 3.7-3.7 3.7zm0-1.6c1.2 0 2.1-.9 2.1-2.2 0-1.2-.9-2.2-2.1-2.2-1.3 0-2.2 1-2.2 2.2 0 1.3.9 2.2 2.2 2.2zm-18.6-3c-1.6 5.5 1 10.7 6.6 12.9l4.1 1.6c6.8 2.6 13.6 1.2 16.3-6.3 1.5-4.1 1-7.7-.9-10.1 1.5 4-.4 8.4-4.4 10.2-4 1.7-8.7-.2-10.5-4.2l-4.4-9.9c-.2-.5-.4-1-.5-1.6-2.5 1.9-5.2 3.7-6.3 7.4z" style="fill:#fff;fill-opacity:.85"/>
  <path d="M33.2 69c-1-2.8-1.2-5.5-.7-8.1-4 1.1-7 4.8-7 9.2 0 5.3 4.2 9.6 9.5 9.6 2.4 0 4.6-.9 6.2-2.3-3.6-1.3-6.4-4.1-8-8.4zm61.6 0c-1.5 4.2-4.4 7.1-8 8.3 1.7 1.5 3.8 2.3 6.2 2.3 5.2 0 9.5-4.3 9.5-9.6 0-4.4-3-8.1-7-9.2.5 2.8.3 5.5-.7 8.2z" style="fill:#fff;fill-opacity:.425"/>
  <path d="M43.5 64.8c-2.1 0-3.7-1.6-3.7-3.7s1.6-3.7 3.7-3.7 3.7 1.6 3.7 3.7c0 2-1.6 3.7-3.7 3.7zm0-1.6c1.3 0 2.2-.9 2.2-2.2 0-1.2-.9-2.2-2.2-2.2-1.2 0-2.1 1-2.1 2.2 0 1.3.9 2.2 2.1 2.2zm41 1.6c-2.1 0-3.7-1.6-3.7-3.7s1.6-3.7 3.7-3.7c2 0 3.7 1.6 3.7 3.7 0 2-1.7 3.7-3.7 3.7zm0-1.6c1.2 0 2.1-.9 2.1-2.2 0-1.2-.9-2.2-2.1-2.2-1.3 0-2.2 1-2.2 2.2 0 1.3.9 2.2 2.2 2.2z" style="fill:#fff;fill-opacity:.2125"/>
</svg>

<?xml version="1.0" encoding="utf-8"?>
<!-- Generator: Adobe Illustrator 26.0.2, SVG Export Plug-In . SVG Version: 6.00 Build 0)  -->
<svg version="1.1" id="Layer_1" xmlns="http://www.w3.org/2000/svg" xmlns:xlink="http://www.w3.org/1999/xlink" x="0px" y="0px"
	 viewBox="0 0 128 128" style="enable-background:new 0 0 128 128;" xml:space="preserve">
<style type="text/css">
	.st0{fill:#656365;}
	.st1{fill-opacity:0;}
	.st2{fill:#FFFFFF;fill-opacity:0.85;}
	.st3{fill:#FFFFFF;fill-opacity:0.425;}
	.st4{fill:#FFFFFF;fill-opacity:0.2125;}
</style>
<circle class="st0" cx="64" cy="64" r="64"/>
<g>
	<rect x="25.5" y="44.3" class="st1" width="76.9" height="35.3"/>
	<path class="st2" d="M41.3,66.5c3,1.3,6.5-0.2,7.8-3.2l4.4-9.9c1.3-3-0.1-6.5-3.2-7.8c-3-1.3-6.5,0.1-7.8,3.2l-4.3,9.9
		C36.9,61.7,38.3,65.2,41.3,66.5z M43.5,64.8c-2.1,0-3.7-1.6-3.7-3.7c0-2.1,1.6-3.7,3.7-3.7c2.1,0,3.7,1.6,3.7,3.7
		C47.2,63.1,45.6,64.8,43.5,64.8z M43.5,63.2c1.3,0,2.2-0.9,2.2-2.2c0-1.2-0.9-2.2-2.2-2.2c-1.2,0-2.1,1-2.1,2.2
		C41.4,62.3,42.3,63.2,43.5,63.2z M62.1,60.2c-1.1-3.7-3.9-5.5-6.2-7.5c-0.1,0.5-0.3,1-0.5,1.6L51,64.2c-1.8,4-6.5,5.9-10.6,4.2
		c-4-1.8-5.9-6.2-4.4-10.2c-2,2.4-2.4,6-0.9,10.1c2.7,7.5,9.6,9,16.3,6.3l4.1-1.6C61.1,70.9,63.7,65.7,62.1,60.2z M86.7,66.5
		c3-1.3,4.5-4.8,3.2-7.8l-4.3-9.9c-1.4-3.1-4.8-4.5-7.8-3.2c-3,1.3-4.5,4.9-3.2,7.8l4.4,9.9C80.2,66.3,83.6,67.8,86.7,66.5z
		 M84.5,64.8c-2.1,0-3.7-1.6-3.7-3.7c0-2.1,1.6-3.7,3.7-3.7c2,0,3.7,1.6,3.7,3.7C88.2,63.1,86.5,64.8,84.5,64.8z M84.5,63.2
		c1.2,0,2.1-0.9,2.1-2.2c0-1.2-0.9-2.2-2.1-2.2c-1.3,0-2.2,1-2.2,2.2C82.3,62.3,83.2,63.2,84.5,63.2z M65.9,60.2
		c-1.6,5.5,1,10.7,6.6,12.9l4.1,1.6c6.8,2.6,13.6,1.2,16.3-6.3c1.5-4.1,1-7.7-0.9-10.1c1.5,4-0.4,8.4-4.4,10.2
		c-4,1.7-8.7-0.2-10.5-4.2l-4.4-9.9c-0.2-0.5-0.4-1-0.5-1.6C69.7,54.7,67,56.5,65.9,60.2z"/>
	<path class="st3" d="M33.2,69c-1-2.8-1.2-5.5-0.7-8.1c-4,1.1-7,4.8-7,9.2c0,5.3,4.2,9.6,9.5,9.6c2.4,0,4.6-0.9,6.2-2.3
		C37.6,76.1,34.8,73.3,33.2,69z M94.8,69c-1.5,4.2-4.4,7.1-8,8.3c1.7,1.5,3.8,2.3,6.2,2.3c5.2,0,9.5-4.3,9.5-9.6c0-4.4-3-8.1-7-9.2
		C96,63.6,95.8,66.3,94.8,69z"/>
	<path class="st4" d="M43.5,64.8c-2.1,0-3.7-1.6-3.7-3.7c0-2.1,1.6-3.7,3.7-3.7c2.1,0,3.7,1.6,3.7,3.7
		C47.2,63.1,45.6,64.8,43.5,64.8z M43.5,63.2c1.3,0,2.2-0.9,2.2-2.2c0-1.2-0.9-2.2-2.2-2.2c-1.2,0-2.1,1-2.1,2.2
		C41.4,62.3,42.3,63.2,43.5,63.2z M84.5,64.8c-2.1,0-3.7-1.6-3.7-3.7c0-2.1,1.6-3.7,3.7-3.7c2,0,3.7,1.6,3.7,3.7
		C88.2,63.1,86.5,64.8,84.5,64.8z M84.5,63.2c1.2,0,2.1-0.9,2.1-2.2c0-1.2-0.9-2.2-2.1-2.2c-1.3,0-2.2,1-2.2,2.2
		C82.3,62.3,83.2,63.2,84.5,63.2z"/>
</g>
</svg>
